X: 5
T: Music In The Glen
Z: didier
S: https://thesession.org/tunes/303#setting24109
R: reel
M: 4/4
L: 1/8
K: Gmaj
G2 BG EFGC|B,DGB A3B|c2 ec B2 dB|BABG AGEF|
G2 BG EFGC|B,DGB A3B|cdef gbge|dcBA G3 D|
G2 BG EFGC|B,DGB A3B|cece BdBd|A3 B AGEF|
G2 BG EFGC|B,DGB A3B|cdef gbge|dcBA G4||
|:BGdG e2dc|BGdG BA F2|BGdG eg (3def|gdBG AGE2|
BGdG e2df|g2 fg afdf|g2 fgeg dB|1 cABG AG EF:|2 c2 (3BcB AGEF||

